;FLAVOR:Marlin
;TIME:3441
;Filament used: 3.46546m
;Layer height: 0.2
;MINX:101.805
;MINY:98.338
;MINZ:0.32
;MAXX:133.194
;MAXY:136.661
;MAXZ:30.55
;Generated with Cura_SteamEngine 4.11.0
M140 S55
M105
M190 S55
M104 S200
M105
M109 S200
M82 ;absolute extrusion mode
G28 ;Home
G1 Z15.0 F6000 ;Move the platform down 15mm
;Prime the extruder
G92 E0
G1 F200 E3
G92 E0
G92 E0
G92 E0
G1 F1500 E-7
;LAYER_COUNT:147
;LAYER:-6
M107
G0 F7200 X103.304 Y100.063 Z0.32
;TYPE:SUPPORT-INTERFACE
G1 F1500 E0
G1 F1125 X103.81 Y99.589 E0.07379
G1 X104.256 Y99.266 E0.1324
G1 X104.781 Y98.978 E0.19614
G1 X105.307 Y98.77 E0.25634
G1 X105.86 Y98.63 E0.31705
G1 X106.648 Y98.546 E0.4014
G1 X106.84 Y98.539 E0.42184
G1 X128.201 Y98.539 E2.69535
G1 X128.704 Y98.567 E2.74897
G1 X129.286 Y98.659 E2.81168
G1 X129.835 Y98.819 E2.87254
G1 X130.372 Y99.052 E2.93484
G1 X130.85 Y99.335 E2.99397
G1 X131.47 Y99.837 E3.07887
G1 X131.944 Y100.343 E3.15266
G1 X132.267 Y100.789 E3.21127
G1 X132.557 Y101.316 E3.2753
G1 X132.765 Y101.847 E3.33599
G1 X132.902 Y102.383 E3.39487
G1 X132.987 Y103.174 E3.47955
G1 X132.994 Y103.359 E3.49925
G1 X132.994 Y131.668 E6.51225
G1 X132.966 Y132.171 E6.56587
G1 X132.874 Y132.753 E6.62858
G1 X132.714 Y133.302 E6.68944
G1 X132.481 Y133.839 E6.75174
G1 X132.198 Y134.317 E6.81087
G1 X131.696 Y134.937 E6.89577
G1 X131.192 Y135.409 E6.96926
G1 X130.744 Y135.734 E7.02817
G1 X130.219 Y136.022 E7.0919
G1 X129.693 Y136.23 E7.15211
G1 X129.14 Y136.37 E7.21282
G1 X128.352 Y136.454 E7.29716
G1 X128.16 Y136.461 E7.31761
G1 X124.315 Y136.461 E7.72684
G1 X124.11 Y136.453 E7.74868
G1 X123.576 Y136.449 E7.80552
G1 X123.293 Y136.461 E7.83566
G1 X112.046 Y136.461 E9.03271
G1 X111.735 Y136.435 E9.06593
G1 X111.025 Y136.461 E9.14154
G1 X106.799 Y136.461 E9.59133
G1 X106.296 Y136.433 E9.64495
G1 X105.714 Y136.341 E9.70766
G1 X105.163 Y136.18 E9.76875
G1 X104.627 Y135.947 E9.83096
G1 X104.15 Y135.665 E9.88994
G1 X103.53 Y135.163 E9.97484
G1 X103.056 Y134.657 E10.04864
G1 X102.73 Y134.206 E10.10786
G1 X102.445 Y133.686 E10.17098
G1 X102.237 Y133.16 E10.23118
G1 X102.097 Y132.607 E10.29189
G1 X102.012 Y131.809 E10.37731
G1 X102.006 Y131.641 E10.3952
G1 X102.006 Y103.332 E13.40819
G1 X102.034 Y102.829 E13.46181
G1 X102.126 Y102.247 E13.52452
G1 X102.286 Y101.698 E13.58539
G1 X102.519 Y101.161 E13.64769
G1 X102.81 Y100.673 E13.70816
G1 X103.304 Y100.063 E13.7917
G0 F7200 X104 Y99.451
G1 F1125 X104 Y135.543 E17.63306
G0 F7200 X105.6 Y136.307
G1 F1125 X105.6 Y98.695 E21.6362
G0 F7200 X107.2 Y98.539
G1 F1125 X107.2 Y136.461 E25.67233
G0 F7200 X108.8 Y136.461
G1 F1125 X108.8 Y98.539 E29.70846
G0 F7200 X110.4 Y98.539
G1 F1125 X110.4 Y136.461 E33.74459
G0 F7200 X112 Y136.457
G1 F1125 X112 Y98.539 E37.7803
G0 F7200 X113.6 Y98.539
G1 F1125 X113.6 Y136.461 E41.81643
G0 F7200 X115.2 Y136.461
G1 F1125 X115.2 Y98.539 E45.85256
G0 F7200 X116.8 Y98.539
G1 F1125 X116.8 Y136.461 E49.88869
G0 F7200 X118.4 Y136.461
G1 F1125 X118.4 Y98.539 E53.92482
G0 F7200 X120 Y98.539
G1 F1125 X120 Y136.461 E57.96095
G0 F7200 X121.6 Y136.461
G1 F1125 X121.6 Y98.539 E61.99708
G0 F7200 X123.2 Y98.539
G1 F1125 X123.2 Y136.461 E66.03321
G0 F7200 X124.8 Y136.461
G1 F1125 X124.8 Y98.539 E70.06934
G0 F7200 X126.4 Y98.539
G1 F1125 X126.4 Y136.461 E74.10547
G0 F7200 X128 Y136.461
G1 F1125 X128 Y98.539 E78.1416
G0 F7200 X129.6 Y98.751
G1 F1125 X129.6 Y136.254 E82.13314
G0 F7200 X131.2 Y135.402
G1 F1125 X131.2 Y99.619 E85.94161
G0 F7200 X132.8 Y101.984
G1 F1125 X132.8 Y133.007 E89.24347
G0 F7200 X102.4 Y133.572
G1 F1125 X102.4 Y101.435 E92.66388
G0 F600 X102.4 Y101.435 Z0.52
G0 F7200 X106.169 Y98.532
;TIME_ELAPSED:51.267172
;LAYER:-5
;TYPE:SUPPORT
G1 F1125 X106.642 Y98.496 E92.6915
G1 X106.837 Y98.489 E92.70285
G1 X107.398 Y98.489 E92.73551
G1 X133.043 Y124.134 E94.84646
G1 X133.043 Y122.861 E94.92056
G1 X108.671 Y98.489 E96.92673
G1 X109.944 Y98.489 E97.00083
G1 X133.043 Y121.588 E98.90221
G1 X133.043 Y120.315 E98.97631
G1 X111.217 Y98.489 E100.77291
G1 X112.49 Y98.489 E100.847
G1 X133.043 Y119.042 E102.53882
G1 X133.043 Y117.77 E102.61285
G1 X113.762 Y98.489 E104.19996
G1 X115.035 Y98.489 E104.27406
G1 X133.043 Y116.497 E105.75638
G1 X133.043 Y115.224 E105.83047
G1 X116.308 Y98.489 E107.20801
G1 X117.581 Y98.489 E107.2821
G1 X133.043 Y113.951 E108.55485
G1 X133.043 Y112.678 E108.62895
G1 X118.854 Y98.489 E109.79691
G1 X120.126 Y98.489 E109.87095
G1 X133.043 Y111.406 E110.93421
G1 X133.043 Y110.133 E111.0083
G1 X121.399 Y98.489 E111.96677
G1 X122.672 Y98.489 E112.04087
G1 X133.043 Y108.86 E112.89455
G1 X133.043 Y107.587 E112.96865
G1 X123.945 Y98.489 E113.71755
G1 X125.218 Y98.489 E113.79164
G1 X133.043 Y106.314 E114.43575
G1 X133.043 Y105.042 E114.50979
G1 X126.49 Y98.489 E115.0492
G1 X127.763 Y98.489 E115.12329
G1 X133.043 Y103.769 E115.55792
G1 X133.043 Y103.359 E115.58178
G1 X133.035 Y103.171 E115.59273
G1 X132.999 Y102.703 E115.62005
G1 X132.956 Y102.409 E115.63735
G1 X129.124 Y98.577 E115.95278
G1 X129.291 Y98.608 E115.96266
G1 X129.588 Y98.686 E115.98054
G1 X129.872 Y98.779 E115.99793
G1 X130.12 Y98.877 E116.01345
G1 X130.401 Y99.011 E116.03157
G1 X130.652 Y99.15 E116.04827
G1 X130.877 Y99.294 E116.06382
G1 X131.15 Y99.496 E116.08359
G1 X131.493 Y99.791 E116.10992
G1 X131.642 Y99.928 E116.1217
G1 X131.721 Y100.015 E116.12854
G1 X131.976 Y100.303 E116.15093
G1 X132.146 Y100.523 E116.16711
G1 X132.321 Y100.781 E116.18526
G1 X132.468 Y101.032 E116.20219
G1 X132.599 Y101.288 E116.21893
G1 X132.706 Y101.538 E116.23476
G1 X132.817 Y101.847 E116.25387
G1 X132.89 Y102.104 E116.26942
G1 X132.951 Y102.377 E116.2857
G0 F7200 X106.169 Y98.532
G1 F1125 X133.043 Y125.406 E118.49782
G1 X133.043 Y126.679 E118.57192
G1 X105.141 Y98.777 E120.86866
G1 X105.031 Y98.816 E120.87545
G1 X104.746 Y98.938 E120.8935
G1 X104.498 Y99.063 E120.90966
G1 X104.282 Y99.191 E120.92428
G1 X133.043 Y127.952 E123.29173
G1 X133.043 Y129.225 E123.36582
G1 X103.56 Y99.741 E125.79275
G1 X103.481 Y99.81 E125.79885
G1 X103.394 Y99.89 E125.80573
G1 X103.257 Y100.038 E125.81747
G1 X102.963 Y100.382 E125.84381
G1 X102.947 Y100.402 E125.8453
G1 X133.043 Y130.497 E128.3226
G1 X133.043 Y131.67 E128.39087
G1 X133.04 Y131.767 E128.39652
G1 X102.454 Y101.181 E130.9142
G1 X102.343 Y101.411 E130.92906
G1 X102.246 Y101.659 E130.94456
G1 X102.153 Y101.944 E130.96201
G1 X102.109 Y102.109 E130.97195
G1 X132.89 Y132.89 E133.50568
G1 X132.846 Y133.055 E133.51562
G1 X132.752 Y133.339 E133.53303
G1 X132.655 Y133.587 E133.54853
G1 X132.545 Y133.818 E133.56342
G1 X101.958 Y103.231 E136.08118
G1 X101.956 Y103.329 E136.08688
G1 X101.956 Y104.501 E136.1551
G1 X132.052 Y134.597 E138.63244
G1 X132.036 Y134.617 E138.63393
G1 X131.741 Y134.96 E138.66027
G1 X131.607 Y135.106 E138.6718
G1 X131.518 Y135.189 E138.67888
G1 X131.439 Y135.258 E138.68499
G1 X101.956 Y105.774 E141.11191
G1 X101.956 Y107.047 E141.18601
G1 X130.716 Y135.807 E143.55338
G1 X130.5 Y135.935 E143.56799
G1 X130.253 Y136.061 E143.58413
G1 X129.967 Y136.183 E143.60223
G1 X129.858 Y136.222 E143.60897
G1 X101.956 Y108.32 E145.90571
G1 X101.956 Y109.593 E145.9798
G1 X128.83 Y136.467 E148.19193
G1 X128.357 Y136.503 E148.21954
G1 X128.162 Y136.51 E148.2309
G1 X127.6 Y136.51 E148.26361
G1 X101.956 Y110.865 E150.37453
G1 X101.956 Y112.138 E150.44862
G1 X126.328 Y136.51 E152.45479
G1 X125.055 Y136.51 E152.52889
G1 X101.956 Y113.411 E154.43027
G1 X101.956 Y114.684 E154.50437
G1 X123.771 Y136.499 E156.30006
G1 X123.576 Y136.498 E156.31141
G1 X123.296 Y136.51 E156.32773
G1 X122.509 Y136.509 E156.37353
G1 X101.956 Y115.957 E158.0653
G1 X101.956 Y117.229 E158.13934
G1 X121.236 Y136.509 E159.72637
G1 X119.963 Y136.509 E159.80046
G1 X101.956 Y118.502 E161.2827
G1 X101.956 Y119.775 E161.3568
G1 X118.69 Y136.509 E162.73425
G1 X117.417 Y136.509 E162.80835
G1 X101.956 Y121.048 E164.08101
G1 X101.956 Y122.32 E164.15505
G1 X116.145 Y136.509 E165.32301
G1 X114.872 Y136.509 E165.39711
G1 X101.956 Y123.593 E166.46028
G1 X101.956 Y124.866 E166.53438
G1 X113.599 Y136.509 E167.49277
G1 X112.326 Y136.509 E167.56686
G1 X101.956 Y126.139 E168.42047
G1 X101.956 Y127.412 E168.49456
G1 X111.052 Y136.508 E169.2433
G1 X111.027 Y136.509 E169.24475
G1 X109.781 Y136.509 E169.31728
G1 X101.956 Y128.684 E169.96139
G1 X101.956 Y129.957 E170.03548
G1 X108.508 Y136.509 E170.57481
G1 X107.235 Y136.509 E170.6489
G1 X101.956 Y131.23 E171.08344
G1 X101.956 Y131.64 E171.10731
G1 X101.961 Y131.811 E171.11726
G1 X101.999 Y132.296 E171.14558
G1 X102.042 Y132.589 E171.16282
G1 X105.875 Y136.422 E171.47833
G1 X105.707 Y136.39 E171.48828
G1 X105.41 Y136.312 E171.50616
G1 X105.126 Y136.219 E171.52355
G1 X104.878 Y136.121 E171.53907
G1 X104.597 Y135.987 E171.55719
G1 X104.347 Y135.848 E171.57384
G1 X104.121 Y135.705 E171.58941
G1 X103.849 Y135.503 E171.60913
G1 X103.496 Y135.2 E171.6362
G1 X103.357 Y135.07 E171.64728
G1 X103.277 Y134.983 E171.65416
G1 X103.022 Y134.695 E171.67655
G1 X102.852 Y134.475 E171.69273
G1 X102.687 Y134.23 E171.70993
G1 X102.526 Y133.957 E171.72837
G1 X102.403 Y133.717 E171.74407
G1 X102.282 Y133.433 E171.76204
G1 X102.184 Y133.16 E171.77892
G1 X102.106 Y132.891 E171.79522
G1 X102.046 Y132.611 E171.81189
G0 F600 X102.046 Y132.611 Z0.72
G0 F7200 X102.038 Y133.2
;TIME_ELAPSED:124.167824
;LAYER:-4
;TYPE:SUPPORT-INTERFACE
G1 F1500 X132.957 Y133.2 E172.84026
G1 X132.993 Y133.091 E172.84408
G1 X133.068 Y132.8 E172.85407
G1 X101.932 Y132.8 E173.88966
G1 X101.899 Y132.646 E173.8949
G1 X101.862 Y132.4 E173.90317
G1 X133.139 Y132.4 E174.94345
G1 X133.165 Y132.198 E174.95023
G1 X133.177 Y132 E174.95682
G1 X101.824 Y132 E175.99963
G1 X101.812 Y131.833 E176.0052
G1 X101.805 Y131.641 E176.01159
G1 X101.805 Y131.6 E176.01295
G1 X133.194 Y131.6 E177.05695
G1 X133.194 Y131.2 E177.07026
G1 X101.805 Y131.2 E178.11426
G1 X101.805 Y130.8 E178.12756
G1 X133.194 Y130.8 E179.17157
G1 X133.194 Y130.4 E179.18487
G1 X101.805 Y130.4 E180.22887
G1 X101.805 Y130 E180.24218
G1 X133.194 Y130 E181.28618
G1 X133.194 Y129.6 E181.29948
G1 X101.805 Y129.6 E182.34349
G1 X101.805 Y129.2 E182.35679
G1 X133.194 Y129.2 E183.40079
G1 X133.194 Y128.8 E183.4141
G1 X101.805 Y128.8 E184.4581
G1 X101.805 Y128.4 E184.4714
G1 X133.194 Y128.4 E185.5154
G1 X133.194 Y128 E185.52871
G1 X101.805 Y128 E186.57271
G1 X101.805 Y127.6 E186.58602
G1 X133.194 Y127.6 E187.63002
G1 X133.194 Y127.2 E187.64332
G1 X101.805 Y127.2 E188.68732
G1 X101.805 Y126.8 E188.70063
G1 X133.194 Y126.8 E189.74463
G1 X133.194 Y126.4 E189.75793
G1 X101.805 Y126.4 E190.80194
G1 X101.805 Y126 E190.81524
G1 X133.194 Y126 E191.85924
G1 X133.194 Y125.6 E191.87255
G1 X101.805 Y125.6 E192.91655
G1 X101.805 Y125.2 E192.92985
G1 X133.194 Y125.2 E193.97386
G1 X133.194 Y124.8 E193.98716
G1 X101.805 Y124.8 E195.03116
G1 X101.805 Y124.4 E195.04447
G1 X133.194 Y124.4 E196.08847
G1 X133.194 Y124 E196.10177
G1 X101.805 Y124 E197.14578
G1 X101.805 Y123.6 E197.15908
G1 X133.194 Y123.6 E198.20308
G1 X133.194 Y123.2 E198.21639
G1 X101.805 Y123.2 E199.26039
G1 X101.805 Y122.8 E199.27369
G1 X133.194 Y122.8 E200.31769
G1 X133.194 Y122.4 E200.331
G1 X101.805 Y122.4 E201.375
G1 X101.805 Y122 E201.38831
G1 X133.194 Y122 E202.43231
G1 X133.194 Y121.6 E202.44561
G1 X101.805 Y121.6 E203.48961
G1 X101.805 Y121.2 E203.50292
G1 X133.194 Y121.2 E204.54692
G1 X133.194 Y120.8 E204.56022
G1 X101.805 Y120.8 E205.60423
G1 X101.805 Y120.4 E205.61753
G1 X133.194 Y120.4 E206.66153
G1 X133.194 Y120 E206.67484
G1 X101.805 Y120 E207.71884
G1 X101.805 Y119.6 E207.73214
G1 X133.194 Y119.6 E208.77615
G1 X133.194 Y119.2 E208.78945
G1 X101.805 Y119.2 E209.83345
G1 X101.806 Y118.8 E209.84676
G1 X133.194 Y118.8 E210.89073
G1 X133.194 Y118.4 E210.90403
G1 X101.806 Y118.4 E211.948
G1 X101.806 Y118 E211.9613
G1 X133.194 Y118 E213.00527
G1 X133.194 Y117.6 E213.01858
G1 X101.806 Y117.6 E214.06255
G1 X101.806 Y117.2 E214.07585
G1 X133.194 Y117.2 E215.11982
G1 X133.194 Y116.8 E215.13312
G1 X101.806 Y116.8 E216.17709
G1 X101.806 Y116.4 E216.1904
G1 X133.194 Y116.4 E217.23436
G1 X133.194 Y116 E217.24767
G1 X101.806 Y116 E218.29164
G1 X101.806 Y115.6 E218.30494
G1 X133.194 Y115.6 E219.34891
G1 X133.194 Y115.2 E219.36222
G1 X101.806 Y115.2 E220.40618
G1 X101.806 Y114.8 E220.41949
G1 X133.194 Y114.8 E221.46346
G1 X133.194 Y114.4 E221.47676
G1 X101.806 Y114.4 E222.52073
G1 X101.806 Y114 E222.53403
G1 X133.194 Y114 E223.578
G1 X133.194 Y113.6 E223.59131
G1 X101.806 Y113.6 E224.63528
G1 X101.806 Y113.2 E224.64858
G1 X133.194 Y113.2 E225.69255
G1 X133.194 Y112.8 E225.70585
G1 X101.806 Y112.8 E226.74982
G1 X101.806 Y112.4 E226.76313
G1 X133.194 Y112.4 E227.8071
G1 X133.194 Y112 E227.8204
G1 X101.806 Y112 E228.86437
G1 X101.806 Y111.6 E228.87767
G1 X133.194 Y111.6 E229.92164
G1 X133.194 Y111.2 E229.93495
G1 X101.806 Y111.2 E230.97892
G1 X101.806 Y110.8 E230.99222
G1 X133.194 Y110.8 E232.03619
G1 X133.194 Y110.4 E232.04949
G1 X101.806 Y110.4 E233.09346
G1 X101.806 Y110 E233.10677
G1 X133.194 Y110 E234.15074
G1 X133.194 Y109.6 E234.16404
G1 X101.806 Y109.6 E235.20801
G1 X101.806 Y109.2 E235.22131
G1 X133.194 Y109.2 E236.26528
G1 X133.194 Y108.8 E236.27859
G1 X101.806 Y108.8 E237.32256
G1 X101.806 Y108.4 E237.33586
G1 X133.194 Y108.4 E238.37983
G1 X133.194 Y108 E238.39313
G1 X101.806 Y108 E239.4371
G1 X101.806 Y107.6 E239.45041
G1 X133.194 Y107.6 E240.49437
G1 X133.194 Y107.2 E240.50768
G1 X101.806 Y107.2 E241.55165
G1 X101.806 Y106.8 E241.56495
G1 X133.194 Y106.8 E242.60892
G1 X133.194 Y106.4 E242.62223
G1 X101.806 Y106.4 E243.66619
G1 X101.806 Y106 E243.6795
G1 X133.194 Y106 E244.72347
G1 X133.194 Y105.6 E244.73677
G1 X101.806 Y105.6 E245.78074
G1 X101.806 Y105.2 E245.79404
G1 X133.194 Y105.2 E246.83801
G1 X133.194 Y104.8 E246.85132
G1 X101.806 Y104.8 E247.89529
G1 X101.806 Y104.4 E247.90859
G1 X133.194 Y104.4 E248.95256
G1 X133.194 Y104 E248.96586
G1 X101.806 Y104 E250.00983
G1 X101.806 Y103.6 E250.02314
G1 X133.194 Y103.6 E251.06711
G1 X133.194 Y103.358 E251.07516
G1 X133.189 Y103.2 E251.08041
G1 X101.811 Y103.2 E252.12405
G1 X101.835 Y102.802 E252.13731
G0 F7200 X101.836 Y102.8
G1 F1500 X133.16 Y102.8 E253.17915
G1 X133.151 Y102.695 E253.18266
G1 X133.107 Y102.4 E253.19258
G1 X101.893 Y102.4 E254.23076
G1 X101.931 Y102.198 E254.2376
G1 X101.984 Y102 E254.24441
G1 X133.019 Y102 E255.27664
G1 X132.956 Y101.784 E255.28412
G1 X132.89 Y101.6 E255.29063
G1 X102.11 Y101.6 E256.31437
G1 X102.206 Y101.357 E256.32306
G1 X102.281 Y101.2 E256.32885
G1 X132.723 Y101.2 E257.34136
G1 X132.604 Y100.965 E257.35012
G1 X132.507 Y100.8 E257.35648
G1 X102.491 Y100.8 E258.35482
G1 X102.641 Y100.565 E258.36409
G1 X102.764 Y100.4 E258.37094
G1 X132.243 Y100.4 E259.35141
G1 X132.087 Y100.201 E259.35982
G1 X131.911 Y100 E259.36871
G1 X103.094 Y100 E260.32717
G1 X103.152 Y99.932 E260.33014
G1 X103.279 Y99.793 E260.3364
G1 X103.383 Y99.697 E260.34111
G1 X103.494 Y99.6 E260.34601
G1 X131.504 Y99.6 E261.27763
G1 X131.241 Y99.375 E261.28914
G1 X131.006 Y99.2 E261.29888
G1 X103.998 Y99.2 E262.19717
G1 X104.165 Y99.087 E262.20388
G1 X104.433 Y98.929 E262.21423
G1 X104.688 Y98.8 E262.22373
G1 X130.308 Y98.8 E263.07586
G1 X130.179 Y98.739 E263.0806
G1 X129.909 Y98.632 E263.09026
G1 X129.624 Y98.539 E263.10023
G1 X129.329 Y98.462 E263.11037
G1 X129.034 Y98.405 E263.12037
G1 X128.995 Y98.4 E263.12168
G1 X106.042 Y98.4 E263.8851
G1 X106.162 Y98.382 E263.88913
G1 X106.634 Y98.346 E263.90488
G1 X106.833 Y98.339 E263.9115
G1 X128.208 Y98.338 E264.62243
G1 X128.327 Y98.342 E264.62639
G1 X128.731 Y98.367 E264.63986
G0 F7200 X130.027 Y136.322
G1 F1500 X130.311 Y136.2 E264.65014
G1 X130.566 Y136.071 E264.65964
G1 X130.686 Y136 E264.66428
G1 X104.308 Y136 E265.54162
