;FLAVOR:Marlin
;TIME:6367
;Filament used: 6.03999m
;Layer height: 0.2
;MINX:99.339
;MINY:53.062
;MINZ:0.32
;MAXX:212.506
;MAXY:150.674
;MAXZ:5.35
;Generated with Cura_SteamEngine 4.11.0
M140 S55
M105
M190 S55
M104 S200
M105
M109 S200
M82 ;absolute extrusion mode
G28 ;Home
G1 Z15.0 F6000 ;Move the platform down 15mm
;Prime the extruder
G92 E0
G1 F200 E3
G92 E0
G92 E0
G92 E0
G1 F1500 E-7
;LAYER_COUNT:21
;LAYER:-6
M107
G0 F7200 X110.508 Y68.485 Z0.32
;TYPE:SUPPORT-INTERFACE
G1 F1500 E0
G1 F1125 X110.85 Y67.991 E0.06395
G1 X111.271 Y67.509 E0.13206
G1 X111.66 Y67.163 E0.18747
G1 X112.106 Y66.84 E0.24608
G1 X112.631 Y66.552 E0.30981
G1 X113.157 Y66.344 E0.37002
G1 X113.71 Y66.204 E0.43073
G1 X114.498 Y66.12 E0.51507
G1 X114.69 Y66.113 E0.53552
G1 X115.969 Y66.113 E0.67165
G1 X116.637 Y66.071 E0.74289
G1 X117.308 Y65.942 E0.81561
G1 X117.957 Y65.729 E0.88831
G1 X118.574 Y65.437 E0.96096
G1 X119.149 Y65.069 E1.03362
G1 X119.673 Y64.631 E1.10631
G1 X120.137 Y64.131 E1.17891
G1 X120.536 Y63.575 E1.25175
G1 X120.86 Y62.975 E1.32432
G1 X121.106 Y62.339 E1.3969
G1 X121.272 Y61.67 E1.47026
G1 X121.356 Y60.731 E1.5706
G1 X121.356 Y58.056 E1.85531
G1 X121.384 Y57.553 E1.90893
G1 X121.476 Y56.971 E1.97164
G1 X121.636 Y56.422 E2.0325
G1 X121.869 Y55.885 E2.0948
G1 X122.16 Y55.397 E2.15528
G1 X122.654 Y54.787 E2.23882
G1 X123.16 Y54.313 E2.31261
G1 X123.606 Y53.99 E2.37122
G1 X124.131 Y53.702 E2.43496
G1 X124.657 Y53.494 E2.49516
G1 X125.21 Y53.354 E2.55587
G1 X125.998 Y53.27 E2.64022
G1 X126.19 Y53.263 E2.66066
G1 X137.763 Y53.263 E3.89241
G1 X138.266 Y53.291 E3.94602
G1 X138.848 Y53.383 E4.00874
G1 X139.397 Y53.543 E4.0696
G1 X139.934 Y53.776 E4.1319
G1 X140.412 Y54.059 E4.19102
G1 X141.032 Y54.561 E4.27593
G1 X141.506 Y55.067 E4.34972
G1 X141.829 Y55.513 E4.40833
G1 X142.119 Y56.04 E4.47236
G1 X142.327 Y56.571 E4.53305
G1 X142.464 Y57.107 E4.59193
G1 X142.548 Y57.885 E4.67522
G1 X142.556 Y58.098 E4.69791
G1 X142.556 Y60.726 E4.97761
G1 X142.598 Y61.394 E5.04885
G1 X142.727 Y62.065 E5.12157
G1 X142.94 Y62.714 E5.19427
G1 X143.232 Y63.331 E5.26692
G1 X143.6 Y63.906 E5.33958
G1 X144.038 Y64.43 E5.41227
G1 X144.538 Y64.894 E5.48487
G1 X145.094 Y65.293 E5.55771
G1 X145.694 Y65.617 E5.63028
G1 X146.33 Y65.863 E5.70286
G1 X146.999 Y66.029 E5.77622
G1 X147.938 Y66.113 E5.87656
G1 X149.263 Y66.113 E6.01759
G1 X149.389 Y66.117 E6.031
G1 X150.064 Y66.178 E6.10314
G1 X150.639 Y66.309 E6.1659
G1 X151.176 Y66.504 E6.22671
G1 X151.693 Y66.77 E6.28859
G1 X152.178 Y67.107 E6.35145
G1 X152.66 Y67.528 E6.41956
G1 X153.006 Y67.917 E6.47497
G1 X153.329 Y68.363 E6.53358
G1 X153.619 Y68.89 E6.5976
G1 X153.827 Y69.421 E6.6583
G1 X153.964 Y69.957 E6.71718
G1 X154.049 Y70.748 E6.80186
G1 X154.056 Y70.933 E6.82156
G1 X154.056 Y74.212 E7.17055
G1 X154.098 Y74.88 E7.24179
G1 X154.227 Y75.551 E7.31451
G1 X154.44 Y76.2 E7.38721
G1 X154.732 Y76.817 E7.45986
G1 X155.1 Y77.392 E7.53252
G1 X155.538 Y77.916 E7.60521
G1 X156.038 Y78.38 E7.67781
G1 X156.594 Y78.779 E7.75065
G1 X157.194 Y79.103 E7.82322
G1 X157.83 Y79.349 E7.8958
G1 X158.494 Y79.513 E7.9686
G1 X159.172 Y79.592 E8.04125
G1 X159.855 Y79.585 E8.11394
G1 X160.531 Y79.492 E8.18657
G1 X161.19 Y79.314 E8.25922
G1 X161.821 Y79.054 E8.33186
G1 X162.416 Y78.717 E8.40464
G1 X162.962 Y78.307 E8.47731
G1 X163.453 Y77.833 E8.54995
G1 X163.878 Y77.299 E8.62259
G1 X164.237 Y76.712 E8.69582
G1 X164.581 Y75.9 E8.78968
G1 X164.777 Y75.36 E8.85082
G1 X165.038 Y74.852 E8.91161
G1 X165.38 Y74.358 E8.97555
G1 X165.801 Y73.876 E9.04367
G1 X166.19 Y73.53 E9.09908
G1 X166.636 Y73.207 E9.15769
G1 X167.161 Y72.919 E9.22142
G1 X167.687 Y72.711 E9.28162
G1 X168.24 Y72.571 E9.34234
G1 X169.028 Y72.487 E9.42668
G1 X169.22 Y72.48 E9.44713
G1 X171.849 Y72.48 E9.72694
G1 X172.517 Y72.438 E9.79818
G1 X173.188 Y72.309 E9.8709
G1 X173.837 Y72.096 E9.9436
G1 X174.454 Y71.804 E10.01625
G1 X175.029 Y71.436 E10.08891
G1 X175.553 Y70.998 E10.1616
G1 X176.017 Y70.498 E10.2342
G1 X176.416 Y69.942 E10.30704
G1 X176.74 Y69.342 E10.37961
G1 X176.986 Y68.706 E10.45219
G1 X177.152 Y68.037 E10.52555
G1 X177.236 Y67.098 E10.62589
G1 X177.236 Y65.766 E10.76766
G1 X177.301 Y64.972 E10.85245
G1 X177.432 Y64.397 E10.91522
G1 X177.627 Y63.86 E10.97602
G1 X177.888 Y63.352 E11.03681
G1 X178.23 Y62.858 E11.10076
G1 X178.651 Y62.376 E11.16887
G1 X179.04 Y62.03 E11.22428
G1 X179.486 Y61.707 E11.28289
G1 X180.011 Y61.419 E11.34662
G1 X180.537 Y61.211 E11.40682
G1 X181.09 Y61.071 E11.46754
G1 X181.878 Y60.987 E11.55188
G1 X182.07 Y60.98 E11.57233
G1 X193.643 Y60.98 E12.80407
G1 X194.146 Y61.008 E12.85769
G1 X194.728 Y61.1 E12.9204
G1 X195.277 Y61.26 E12.98127
G1 X195.814 Y61.493 E13.04357
G1 X196.292 Y61.776 E13.10269
G1 X196.912 Y62.278 E13.1876
G1 X197.386 Y62.784 E13.26139
G1 X197.709 Y63.23 E13.32
G1 X197.999 Y63.757 E13.38402
G1 X198.207 Y64.288 E13.44472
G1 X198.342 Y64.811 E13.50221
G1 X198.429 Y65.615 E13.58828
G1 X198.436 Y65.8 E13.60798
G1 X198.436 Y67.093 E13.7456
G1 X198.478 Y67.761 E13.81684
G1 X198.607 Y68.432 E13.88956
G1 X198.82 Y69.081 E13.96226
G1 X199.112 Y69.698 E14.03491
G1 X199.48 Y70.273 E14.10757
G1 X199.918 Y70.797 E14.18026
G1 X200.418 Y71.261 E14.25286
G1 X200.974 Y71.66 E14.3257
G1 X201.574 Y71.984 E14.39827
G1 X202.21 Y72.23 E14.47085
G1 X202.879 Y72.396 E14.54421
G1 X203.818 Y72.48 E14.64455
G1 X207.513 Y72.48 E15.03782
G1 X208.016 Y72.508 E15.09144
G1 X208.598 Y72.6 E15.15415
G1 X209.147 Y72.76 E15.21501
G1 X209.684 Y72.993 E15.27732
G1 X210.162 Y73.276 E15.33644
G1 X210.782 Y73.778 E15.42135
G1 X211.256 Y74.284 E15.49514
G1 X211.579 Y74.73 E15.55375
G1 X211.869 Y75.257 E15.61777
G1 X212.079 Y75.794 E15.67914
G1 X212.215 Y76.334 E15.73841
G1 X212.299 Y77.115 E15.82201
G1 X212.306 Y77.3 E15.84171
G1 X212.306 Y88.887 E17.07495
G1 X212.278 Y89.39 E17.12857
G1 X212.186 Y89.972 E17.19128
G1 X212.026 Y90.521 E17.25214
G1 X211.793 Y91.058 E17.31444
G1 X211.507 Y91.541 E17.37419
G1 X211.008 Y92.156 E17.45848
G1 X210.514 Y92.62 E17.53061
G1 X210.056 Y92.953 E17.59088
G1 X209.531 Y93.241 E17.65461
G1 X209.005 Y93.449 E17.71481
G1 X208.452 Y93.589 E17.77553
G1 X207.664 Y93.673 E17.85987
G1 X207.472 Y93.68 E17.88032
G1 X203.823 Y93.68 E18.26869
G1 X203.155 Y93.722 E18.33993
G1 X202.484 Y93.851 E18.41265
G1 X201.835 Y94.064 E18.48535
G1 X201.218 Y94.356 E18.55801
G1 X200.643 Y94.724 E18.63066
G1 X200.119 Y95.162 E18.70335
G1 X199.655 Y95.662 E18.77595
G1 X199.256 Y96.218 E18.84879
G1 X198.932 Y96.818 E18.92137
G1 X198.686 Y97.454 E18.99394
G1 X198.52 Y98.123 E19.06731
G1 X198.436 Y99.062 E19.16765
G1 X198.436 Y100.387 E19.30867
G1 X198.408 Y100.89 E19.36229
G1 X198.316 Y101.472 E19.425
G1 X198.156 Y102.021 E19.48586
G1 X197.923 Y102.558 E19.54816
G1 X197.64 Y103.036 E19.60729
G1 X197.138 Y103.656 E19.69219
G1 X196.635 Y104.127 E19.76554
G1 X196.414 Y104.299 E19.79534
G1 X195.91 Y104.742 E19.86676
G1 X195.46 Y105.255 E19.93939
G1 X195.078 Y105.821 E20.01207
G1 X194.769 Y106.43 E20.08475
G1 X194.54 Y107.073 E20.1574
G1 X194.394 Y107.74 E20.23007
G1 X194.333 Y108.424 E20.30316
G1 X194.388 Y109.332 E20.39997
G1 X194.458 Y110.031 E20.47474
G1 X194.465 Y110.216 E20.49445
G1 X194.465 Y111.509 E20.63206
G1 X194.507 Y112.177 E20.7033
G1 X194.636 Y112.848 E20.77602
G1 X194.849 Y113.497 E20.84872
G1 X195.141 Y114.114 E20.92138
G1 X195.509 Y114.689 E20.99403
G1 X195.947 Y115.213 E21.06672
G1 X196.447 Y115.677 E21.13932
G1 X197.003 Y116.076 E21.21216
G1 X197.603 Y116.4 E21.28474
G1 X198.239 Y116.646 E21.35731
G1 X198.908 Y116.812 E21.43068
G1 X199.847 Y116.896 E21.53102
G1 X203.542 Y116.896 E21.92428
G1 X204.045 Y116.924 E21.9779
G1 X204.627 Y117.016 E22.04061
G1 X205.176 Y117.176 E22.10148
G1 X205.713 Y117.409 E22.16378
G1 X206.188 Y117.69 E22.22252
G1 X206.811 Y118.194 E22.30781
G1 X207.285 Y118.7 E22.3816
G1 X207.608 Y119.146 E22.44021
G1 X207.898 Y119.673 E22.50423
G1 X208.105 Y120.202 E22.56469
G1 X208.243 Y120.74 E22.62381
G1 X208.328 Y121.531 E22.70848
G1 X208.335 Y121.716 E22.72818
G1 X208.335 Y133.303 E23.96141
G1 X208.307 Y133.806 E24.01503
G1 X208.215 Y134.388 E24.07775
G1 X208.055 Y134.938 E24.13871
G1 X207.822 Y135.474 E24.20092
G1 X207.539 Y135.952 E24.26004
G1 X207.037 Y136.572 E24.34494
G1 X206.533 Y137.044 E24.41844
G1 X206.085 Y137.369 E24.47734
G1 X205.56 Y137.657 E24.54108
G1 X205.034 Y137.865 E24.60128
G1 X204.481 Y138.005 E24.66199
G1 X203.693 Y138.089 E24.74634
G1 X203.501 Y138.096 E24.76678
G1 X199.852 Y138.096 E25.15516
G1 X199.184 Y138.138 E25.22639
G1 X198.513 Y138.267 E25.29912
G1 X197.864 Y138.48 E25.37182
G1 X197.247 Y138.772 E25.44447
G1 X196.672 Y139.14 E25.51713
G1 X196.148 Y139.578 E25.58982
G1 X195.684 Y140.078 E25.66242
G1 X195.285 Y140.634 E25.73525
G1 X194.961 Y141.234 E25.80783
G1 X194.715 Y141.87 E25.88041
G1 X194.549 Y142.539 E25.95377
G1 X194.465 Y143.478 E26.05411
G1 X194.465 Y144.803 E26.19513
G1 X194.437 Y145.306 E26.24875
G1 X194.345 Y145.888 E26.31146
G1 X194.185 Y146.438 E26.37243
G1 X193.952 Y146.974 E26.43463
G1 X193.669 Y147.452 E26.49375
G1 X193.167 Y148.072 E26.57866
G1 X192.663 Y148.544 E26.65215
G1 X192.215 Y148.869 E26.71106
G1 X191.69 Y149.157 E26.77479
G1 X191.164 Y149.365 E26.83499
G1 X190.611 Y149.505 E26.89571
G1 X189.823 Y149.589 E26.98005
G1 X189.631 Y149.596 E27.0005
G1 X178.058 Y149.596 E28.23224
G1 X177.555 Y149.568 E28.28586
G1 X176.973 Y149.476 E28.34857
G1 X176.422 Y149.315 E28.40967
G1 X175.886 Y149.082 E28.47188
G1 X175.409 Y148.8 E28.53085
G1 X174.789 Y148.298 E28.61576
G1 X174.315 Y147.792 E28.68955
G1 X173.989 Y147.341 E28.74878
G1 X173.706 Y146.826 E28.81132
G1 X173.494 Y146.287 E28.87297
G1 X173.356 Y145.742 E28.93281
G1 X173.271 Y144.944 E29.01822
G1 X173.265 Y144.776 E29.03611
G1 X173.265 Y143.483 E29.17373
G1 X173.223 Y142.815 E29.24497
G1 X173.094 Y142.144 E29.31769
G1 X172.881 Y141.495 E29.39039
G1 X172.589 Y140.878 E29.46304
G1 X172.221 Y140.303 E29.5357
G1 X171.783 Y139.779 E29.60839
G1 X171.283 Y139.315 E29.68099
G1 X170.727 Y138.916 E29.75382
G1 X170.127 Y138.592 E29.8264
G1 X169.491 Y138.346 E29.89898
G1 X168.822 Y138.18 E29.97234
G1 X167.883 Y138.096 E30.07268
G1 X165.208 Y138.096 E30.35739
G1 X164.705 Y138.068 E30.41101
G1 X164.123 Y137.976 E30.47372
G1 X163.572 Y137.815 E30.53481
G1 X163.036 Y137.582 E30.59702
G1 X162.559 Y137.3 E30.656
G1 X161.939 Y136.798 E30.7409
G1 X161.465 Y136.292 E30.8147
G1 X161.139 Y135.841 E30.87392
G1 X160.856 Y135.326 E30.93647
G1 X160.644 Y134.787 E30.99811
G1 X160.506 Y134.242 E31.05795
G1 X160.421 Y133.444 E31.14336
G1 X160.415 Y133.276 E31.16125
G1 X160.415 Y121.688 E32.39459
G1 X160.48 Y120.888 E32.48002
G1 X160.611 Y120.313 E32.54279
G1 X160.806 Y119.776 E32.60359
G1 X161.067 Y119.268 E32.66438
G1 X161.414 Y118.768 E32.72915
G1 X161.83 Y118.292 E32.79644
G1 X162.219 Y117.946 E32.85185
G1 X162.665 Y117.623 E32.91046
G1 X163.19 Y117.335 E32.97419
G1 X163.716 Y117.127 E33.03439
G1 X164.269 Y116.987 E33.09511
G1 X165.057 Y116.903 E33.17945
G1 X165.249 Y116.896 E33.1999
G1 X167.878 Y116.896 E33.47971
G1 X168.546 Y116.854 E33.55095
G1 X169.217 Y116.725 E33.62367
G1 X169.866 Y116.512 E33.69637
G1 X170.483 Y116.22 E33.76902
G1 X171.058 Y115.852 E33.84168
G1 X171.582 Y115.414 E33.91437
G1 X172.046 Y114.914 E33.98697
G1 X172.445 Y114.358 E34.05981
G1 X172.769 Y113.758 E34.13238
G1 X173.015 Y113.122 E34.20496
G1 X173.181 Y112.453 E34.27832
G1 X173.265 Y111.514 E34.37866
G1 X173.265 Y110.188 E34.51979
G1 X173.33 Y109.388 E34.60522
G1 X173.461 Y108.813 E34.66798
G1 X173.656 Y108.276 E34.72879
G1 X173.924 Y107.755 E34.79115
G1 X174.259 Y107.274 E34.85353
G1 X174.68 Y106.792 E34.92165
G1 X175.068 Y106.447 E34.97691
G1 X175.287 Y106.277 E35.00641
G1 X175.791 Y105.834 E35.07783
G1 X176.241 Y105.321 E35.15046
G1 X176.623 Y104.755 E35.22314
G1 X176.932 Y104.146 E35.29582
G1 X177.161 Y103.503 E35.36847
G1 X177.307 Y102.836 E35.44114
G1 X177.368 Y102.152 E35.51423
G1 X177.313 Y101.244 E35.61105
G1 X177.279 Y101.011 E35.63611
G1 X177.241 Y100.506 E35.69001
G1 X177.236 Y100.36 E35.70556
G1 X177.236 Y99.067 E35.84317
G1 X177.194 Y98.399 E35.91441
G1 X177.065 Y97.728 E35.98714
G1 X176.852 Y97.079 E36.05983
G1 X176.56 Y96.462 E36.13249
G1 X176.192 Y95.887 E36.20515
G1 X175.754 Y95.363 E36.27783
G1 X175.254 Y94.899 E36.35043
G1 X174.698 Y94.5 E36.42327
G1 X174.098 Y94.176 E36.49585
G1 X173.462 Y93.93 E36.56842
G1 X172.793 Y93.764 E36.64179
G1 X171.854 Y93.68 E36.74213
G1 X169.179 Y93.68 E37.02683
G1 X168.676 Y93.652 E37.08045
G1 X168.094 Y93.56 E37.14316
G1 X167.543 Y93.399 E37.20426
G1 X167.007 Y93.166 E37.26647
G1 X166.53 Y92.884 E37.32544
G1 X165.91 Y92.382 E37.41035
G1 X165.436 Y91.876 E37.48414
G1 X165.11 Y91.425 E37.54337
G1 X164.825 Y90.905 E37.60648
G1 X164.617 Y90.379 E37.66668
G1 X164.477 Y89.826 E37.7274
G1 X164.392 Y89.028 E37.81281
G1 X164.386 Y88.86 E37.8307
G1 X164.386 Y85.581 E38.1797
G1 X164.344 Y84.913 E38.25093
G1 X164.215 Y84.242 E38.32366
G1 X164.002 Y83.593 E38.39636
G1 X163.71 Y82.976 E38.46901
G1 X163.342 Y82.401 E38.54167
G1 X162.904 Y81.877 E38.61435
G1 X162.404 Y81.413 E38.68696
G1 X161.848 Y81.014 E38.75979
G1 X161.248 Y80.69 E38.83237
G1 X160.612 Y80.444 E38.90495
G1 X159.948 Y80.28 E38.97774
G1 X159.27 Y80.201 E39.05039
G1 X158.587 Y80.208 E39.12309
G1 X157.911 Y80.301 E39.19571
G1 X157.252 Y80.479 E39.26837
G1 X156.621 Y80.739 E39.341
G1 X156.026 Y81.076 E39.41378
G1 X155.48 Y81.486 E39.48645
G1 X154.989 Y81.96 E39.55909
G1 X154.564 Y82.494 E39.63173
G1 X154.205 Y83.081 E39.70496
G1 X153.861 Y83.893 E39.79882
G1 X153.665 Y84.433 E39.85996
G1 X153.399 Y84.95 E39.92184
G1 X153.062 Y85.435 E39.9847
G1 X152.641 Y85.917 E40.05282
G1 X152.254 Y86.261 E40.10793
G1 X151.806 Y86.586 E40.16683
G1 X151.281 Y86.874 E40.23057
G1 X150.755 Y87.082 E40.29077
G1 X150.202 Y87.222 E40.35148
G1 X149.414 Y87.306 E40.43582
G1 X149.222 Y87.313 E40.45627
G1 X147.943 Y87.313 E40.5924
G1 X147.275 Y87.355 E40.66364
G1 X146.604 Y87.484 E40.73636
G1 X145.955 Y87.697 E40.80906
G1 X145.338 Y87.989 E40.88171
G1 X144.763 Y88.357 E40.95437
G1 X144.239 Y88.795 E41.02706
G1 X143.775 Y89.295 E41.09966
G1 X143.376 Y89.851 E41.1725
G1 X143.052 Y90.451 E41.24507
G1 X142.806 Y91.087 E41.31765
G1 X142.64 Y91.756 E41.39101
G1 X142.556 Y92.695 E41.49135
G1 X142.556 Y96.39 E41.88462
G1 X142.528 Y96.893 E41.93824
G1 X142.436 Y97.475 E42.00095
G1 X142.276 Y98.024 E42.06181
G1 X142.043 Y98.561 E42.12412
G1 X141.76 Y99.039 E42.18324
G1 X141.258 Y99.659 E42.26815
G1 X140.755 Y100.131 E42.34156
G1 X140.306 Y100.456 E42.40055
G1 X139.781 Y100.744 E42.46429
G1 X139.255 Y100.952 E42.52449
G1 X138.702 Y101.092 E42.5852
G1 X137.795 Y101.228 E42.68281
G1 X137.797 Y101.239 E42.684
G1 X137.201 Y101.4 E42.74971
G1 X136.569 Y101.661 E42.82249
G1 X135.976 Y101.999 E42.89513
G1 X135.431 Y102.409 E42.96772
G1 X134.94 Y102.885 E43.04051
G1 X134.515 Y103.418 E43.11306
G1 X134.159 Y104.002 E43.18586
G1 X133.88 Y104.625 E43.25851
G1 X133.683 Y105.278 E43.3311
G1 X133.568 Y105.951 E43.40377
G1 X133.54 Y106.634 E43.47652
G1 X133.599 Y107.314 E43.54917
G1 X133.742 Y107.982 E43.62188
G1 X133.967 Y108.621 E43.69398
G1 X134.276 Y109.29 E43.77241
G1 X134.462 Y109.864 E43.83663
G1 X134.567 Y110.448 E43.89979
G1 X134.61 Y111.094 E43.96869
G1 X134.61 Y112.387 E44.10631
G1 X134.652 Y113.055 E44.17755
G1 X134.781 Y113.726 E44.25027
G1 X134.994 Y114.375 E44.32297
G1 X135.286 Y114.992 E44.39562
G1 X135.654 Y115.567 E44.46828
G1 X136.092 Y116.091 E44.54097
G1 X136.592 Y116.555 E44.61357
G1 X137.148 Y116.954 E44.68641
G1 X137.748 Y117.278 E44.75898
G1 X138.384 Y117.524 E44.83156
G1 X139.053 Y117.69 E44.90492
G1 X139.992 Y117.774 E45.00526
