;FLAVOR:Marlin
;TIME:3119
;Filament used: 2.93219m
;Layer height: 0.2
;MINX:119.625
;MINY:106.699
;MINZ:0.32
;MAXX:190.739
;MAXY:169.089
;MAXZ:6.15
;Generated with Cura_SteamEngine 4.11.0
M140 S55
M105
M190 S55
M104 S200
M105
M109 S200
M82 ;absolute extrusion mode
G28 ;Home
G1 Z15.0 F6000 ;Move the platform down 15mm
;Prime the extruder
G92 E0
G1 F200 E3
G92 E0
G92 E0
G92 E0
G1 F1500 E-7
;LAYER_COUNT:25
;LAYER:-6
M107
G0 F7200 X123.855 Y108.424 Z0.32
;TYPE:SUPPORT-INTERFACE
G1 F1500 E0
G1 F1125 X124.351 Y107.958 E0.07243
G1 X124.807 Y107.627 E0.13241
G1 X125.332 Y107.339 E0.19614
G1 X125.858 Y107.131 E0.25634
G1 X126.417 Y106.989 E0.31773
G1 X127.199 Y106.907 E0.40141
G1 X127.392 Y106.9 E0.42197
G1 X130.852 Y106.901 E0.79022
G1 X131.408 Y106.918 E0.84943
G1 X131.884 Y106.9 E0.90012
G1 X149.865 Y106.901 E2.81389
G1 X150.24 Y106.916 E2.85383
G1 X151.035 Y106.973 E2.93866
G1 X151.565 Y107.045 E2.99559
G1 X152.377 Y107.212 E3.08382
G1 X152.988 Y107.38 E3.15126
G1 X153.095 Y107.415 E3.16325
G1 X153.839 Y107.681 E3.24734
G1 X154.479 Y107.877 E3.31858
G1 X155.152 Y107.993 E3.39127
G1 X155.835 Y108.022 E3.46402
G1 X156.501 Y107.967 E3.53515
G1 X157.295 Y107.883 E3.62013
G1 X157.488 Y107.876 E3.64068
G1 X160.948 Y107.877 E4.00894
G1 X161.504 Y107.894 E4.06814
G1 X161.98 Y107.876 E4.11884
G1 X179.961 Y107.877 E6.0326
G1 X180.336 Y107.892 E6.07255
G1 X181.131 Y107.949 E6.15738
G1 X181.723 Y108.032 E6.221
G1 X182.468 Y108.187 E6.30199
G1 X183.044 Y108.345 E6.36556
G1 X183.227 Y108.404 E6.38603
G1 X183.9 Y108.645 E6.46211
G1 X184.427 Y108.874 E6.52327
G1 X184.513 Y108.916 E6.53345
G1 X185.206 Y109.277 E6.61662
G1 X185.675 Y109.561 E6.67497
G1 X185.779 Y109.63 E6.68826
G1 X186.306 Y110.001 E6.75685
G1 X186.739 Y110.34 E6.81538
G1 X186.88 Y110.46 E6.83509
G1 X187.42 Y110.963 E6.91363
G1 X187.91 Y111.48 E6.98945
G1 X188.379 Y112.056 E7.0685
G1 X188.688 Y112.48 E7.12434
G1 X188.788 Y112.631 E7.14362
G1 X189.156 Y113.236 E7.21899
G1 X189.404 Y113.679 E7.27302
G1 X189.525 Y113.943 E7.30393
G1 X189.834 Y114.658 E7.38683
G1 X190.03 Y115.213 E7.44948
G1 X190.047 Y115.268 E7.4556
G1 X190.232 Y115.93 E7.52876
G1 X190.375 Y116.586 E7.60022
G1 X190.395 Y116.714 E7.61401
G1 X190.486 Y117.366 E7.68408
G1 X190.539 Y118.086 E7.76092
G1 X190.539 Y118.865 E7.84383
G1 X190.502 Y119.452 E7.90643
G1 X190.487 Y119.578 E7.91993
G1 X190.395 Y120.237 E7.99075
G1 X190.301 Y120.754 E8.04668
G1 X190.239 Y120.996 E8.07327
G1 X190.05 Y121.673 E8.14808
G1 X189.86 Y122.232 E8.21091
G1 X189.527 Y123.004 E8.3004
G1 X189.232 Y123.586 E8.36985
G1 X189.171 Y123.69 E8.38268
G1 X188.779 Y124.335 E8.46301
G1 X188.457 Y124.797 E8.52295
G1 X188.387 Y124.886 E8.535
G1 X187.955 Y125.417 E8.60785
G1 X187.573 Y125.842 E8.66868
G1 X187.468 Y125.943 E8.68418
G1 X186.88 Y126.491 E8.76973
G1 X186.43 Y126.857 E8.83146
G1 X186.307 Y126.949 E8.84781
G1 X185.786 Y127.316 E8.91564
G1 X185.362 Y127.587 E8.9692
G1 X185.162 Y127.697 E8.99349
G1 X184.443 Y128.07 E9.0797
G1 X183.9 Y128.306 E9.14272
G1 X183.227 Y128.547 E9.2188
G1 X182.629 Y128.724 E9.28518
G1 X182.466 Y128.765 E9.30306
G1 X181.703 Y128.923 E9.386
G1 X181.12 Y129.005 E9.44866
G1 X180.228 Y129.067 E9.54382
G1 X179.914 Y129.076 E9.57726
G1 X161.949 Y129.076 E11.48932
G1 X161.744 Y129.068 E11.51115
G1 X161.21 Y129.064 E11.56799
G1 X160.927 Y129.076 E11.59813
G1 X157.446 Y129.076 E11.96863
G1 X156.943 Y129.048 E12.02224
G1 X156.361 Y128.956 E12.08496
G1 X155.81 Y128.795 E12.14605
G1 X155.272 Y128.561 E12.2085
G1 X155.218 Y128.531 E12.21507
G1 X154.612 Y128.242 E12.28653
G1 X153.964 Y128.029 E12.35913
G1 X153.293 Y127.898 E12.43189
G1 X152.612 Y127.854 E12.50452
G1 X151.937 Y127.896 E12.5765
G1 X151.343 Y127.994 E12.64058
G1 X150.913 Y128.037 E12.68657
G1 X150.124 Y128.091 E12.77074
G1 X149.818 Y128.1 E12.80333
G1 X131.853 Y128.1 E14.71539
G1 X131.648 Y128.092 E14.73722
G1 X131.114 Y128.088 E14.79406
G1 X130.831 Y128.1 E14.8242
G1 X127.35 Y128.1 E15.1947
G1 X126.847 Y128.072 E15.24831
G1 X126.265 Y127.98 E15.31103
G1 X125.714 Y127.819 E15.37212
G1 X125.178 Y127.586 E15.43433
G1 X124.701 Y127.304 E15.49331
G1 X124.081 Y126.802 E15.57821
G1 X123.607 Y126.296 E15.652
G1 X123.279 Y125.842 E15.71162
G1 X122.996 Y125.325 E15.77435
G1 X122.787 Y124.797 E15.83479
G1 X122.648 Y124.246 E15.89527
G1 X122.564 Y123.456 E15.97982
G1 X122.557 Y123.266 E16.00006
G1 X122.557 Y111.693 E17.2318
G1 X122.585 Y111.19 E17.28542
G1 X122.676 Y110.61 E17.34791
G1 X122.842 Y110.043 E17.41079
G1 X123.078 Y109.508 E17.47302
G1 X123.353 Y109.044 E17.53043
G1 X123.855 Y108.424 E17.61533
G1 F1500 E10.61533
G0 F7200 X123.244 Y126.612
G0 X123.296 Y147.325
G0 X121.63 Y148.693
G1 F1500 E17.61533
G1 F1125 X122.076 Y148.37 E17.67394
G1 X122.601 Y148.082 E17.73768
G1 X123.127 Y147.874 E17.79788
G1 X123.686 Y147.732 E17.85926
G1 X124.468 Y147.65 E17.94295
G1 X124.661 Y147.643 E17.9635
G1 X128.121 Y147.644 E18.33176
G1 X128.677 Y147.661 E18.39096
G1 X129.153 Y147.643 E18.44166
G1 X147.076 Y147.643 E20.34925
G1 X147.493 Y147.657 E20.39366
G1 X148.271 Y147.711 E20.47666
G1 X148.876 Y147.795 E20.54167
G1 X149.639 Y147.953 E20.6246
G1 X150.224 Y148.114 E20.68918
G1 X150.741 Y148.292 E20.74738
G1 X151.385 Y148.477 E20.81869
G1 X152.06 Y148.582 E20.8914
G1 X152.743 Y148.601 E20.96412
G1 X153.422 Y148.532 E21.03676
G1 X154.086 Y148.379 E21.10928
G1 X154.677 Y148.166 E21.17614
G1 X155.296 Y147.918 E21.24712
G1 X155.847 Y147.778 E21.30762
G1 X156.629 Y147.696 E21.39131
G1 X156.822 Y147.689 E21.41186
G1 X160.282 Y147.69 E21.78012
G1 X160.838 Y147.707 E21.83932
G1 X161.314 Y147.689 E21.89002
G1 X179.237 Y147.689 E23.79761
G1 X179.654 Y147.703 E23.84202
G1 X180.432 Y147.757 E23.92502
G1 X181.045 Y147.842 E23.99089
G1 X181.789 Y147.996 E24.07175
G1 X182.418 Y148.169 E24.14119
G1 X182.525 Y148.204 E24.15317
G1 X183.226 Y148.453 E24.23234
G1 X183.761 Y148.687 E24.29449
G1 X183.847 Y148.729 E24.30468
G1 X184.54 Y149.09 E24.38785
G1 X185.009 Y149.374 E24.4462
G1 X185.113 Y149.443 E24.45948
G1 X185.639 Y149.813 E24.52793
G1 X186.082 Y150.161 E24.58789
G1 X186.214 Y150.273 E24.60631
G1 X186.756 Y150.778 E24.68516
G1 X187.117 Y151.146 E24.74003
G1 X187.266 Y151.319 E24.76433
G1 X187.698 Y151.852 E24.83735
G1 X188.023 Y152.296 E24.89591
G1 X188.154 Y152.496 E24.92136
G1 X188.564 Y153.173 E25.0056
G1 X188.817 Y153.667 E25.06467
G1 X188.867 Y153.775 E25.07733
G1 X189.168 Y154.471 E25.15804
G1 X189.364 Y155.026 E25.22069
G1 X189.381 Y155.081 E25.22681
G1 X189.566 Y155.743 E25.29997
G1 X189.709 Y156.399 E25.37143
G1 X189.729 Y156.527 E25.38522
G1 X189.82 Y157.179 E25.45529
G1 X189.873 Y157.899 E25.53212
G1 X189.873 Y158.678 E25.61504
G1 X189.836 Y159.265 E25.67764
G1 X189.821 Y159.391 E25.69114
G1 X189.729 Y160.05 E25.76196
G1 X189.635 Y160.567 E25.81789
G1 X189.573 Y160.809 E25.84448
G1 X189.384 Y161.486 E25.91929
G1 X189.194 Y162.045 E25.98212
G1 X188.871 Y162.793 E26.06884
G1 X188.617 Y163.305 E26.12967
G1 X188.541 Y163.442 E26.14635
G1 X188.106 Y164.158 E26.23551
G1 X187.78 Y164.618 E26.29552
G1 X187.698 Y164.725 E26.30987
G1 X187.251 Y165.275 E26.3853
G1 X186.842 Y165.715 E26.44924
G1 X186.756 Y165.799 E26.46203
G1 X186.214 Y166.304 E26.54088
G1 X185.764 Y166.67 E26.60262
G1 X185.641 Y166.762 E26.61896
G1 X185.12 Y167.129 E26.68679
G1 X184.687 Y167.406 E26.7415
G1 X184.496 Y167.51 E26.76465
G1 X183.846 Y167.848 E26.84262
G1 X183.226 Y168.124 E26.91485
G1 X182.525 Y168.373 E26.99403
G1 X181.948 Y168.541 E27.05799
G1 X181.789 Y168.58 E27.07542
G1 X181.045 Y168.735 E27.1563
G1 X180.454 Y168.818 E27.21982
G1 X179.562 Y168.88 E27.31499
G1 X179.248 Y168.889 E27.34842
G1 X161.283 Y168.889 E29.26048
G1 X161.078 Y168.881 E29.28231
G1 X160.544 Y168.877 E29.33915
G1 X160.261 Y168.889 E29.3693
G1 X156.78 Y168.889 E29.73979
G1 X156.277 Y168.861 E29.79341
G1 X155.695 Y168.769 E29.85612
G1 X155.144 Y168.608 E29.91722
G1 X154.733 Y168.435 E29.96468
G1 X154.109 Y168.187 E30.03614
G1 X153.448 Y168.017 E30.10879
G1 X152.771 Y167.932 E30.18141
G1 X152.088 Y167.932 E30.2541
G1 X151.408 Y168.02 E30.32708
G1 X150.637 Y168.23 E30.41213
G1 X149.802 Y168.491 E30.50524
G1 X149.639 Y168.532 E30.52313
G1 X148.876 Y168.69 E30.60606
G1 X148.293 Y168.772 E30.66872
G1 X147.401 Y168.834 E30.76389
G1 X147.087 Y168.843 E30.79732
G1 X129.122 Y168.843 E32.70938
G1 X128.917 Y168.835 E32.73121
G1 X128.383 Y168.831 E32.78805
G1 X128.1 Y168.843 E32.8182
G1 X124.619 Y168.843 E33.18869
G1 X124.116 Y168.815 E33.24231
G1 X123.534 Y168.723 E33.30502
G1 X122.983 Y168.562 E33.36612
G1 X122.447 Y168.329 E33.42832
G1 X121.97 Y168.047 E33.4873
G1 X121.35 Y167.545 E33.5722
G1 X120.876 Y167.039 E33.646
G1 X120.552 Y166.591 E33.70484
G1 X120.264 Y166.066 E33.76857
G1 X120.055 Y165.536 E33.82921
G1 X119.917 Y164.989 E33.88925
G1 X119.832 Y164.191 E33.97467
G1 X119.826 Y164.01 E33.99394
G1 X119.826 Y152.435 E35.2259
G1 X119.891 Y151.635 E35.31132
G1 X120.022 Y151.06 E35.37409
G1 X120.217 Y150.523 E35.4349
G1 X120.485 Y150.002 E35.49725
G1 X120.826 Y149.513 E35.5607
G1 X121.248 Y149.032 E35.62881
G1 X121.63 Y148.693 E35.68317
G0 F7200 X121.6 Y148.719
G1 F1125 X121.6 Y167.747 E37.70836
G0 F7200 X123.2 Y168.625
G1 F1125 X123.2 Y147.855 E39.91896
G0 F7200 X124.8 Y147.644
G1 F1125 X124.8 Y168.843 E42.17523
G0 F7200 X126.4 Y168.843
G1 F1125 X126.4 Y147.644 E44.43149
G0 F7200 X128 Y147.644
G1 F1125 X128 Y168.843 E46.68775
G0 F7200 X129.6 Y168.843
G1 F1125 X129.6 Y147.643 E48.94411
G0 F7200 X131.2 Y147.643
G1 F1125 X131.2 Y168.843 E51.20048
G0 F7200 X132.8 Y168.843
G1 F1125 X132.8 Y147.643 E53.45685
G0 F7200 X134.4 Y147.643
G1 F1125 X134.4 Y168.843 E55.71322
G0 F7200 X136 Y168.843
G1 F1125 X136 Y147.643 E57.96959
G0 F7200 X137.6 Y147.643
G1 F1125 X137.6 Y168.843 E60.22595
G0 F7200 X139.2 Y168.843
G1 F1125 X139.2 Y147.643 E62.48232
G0 F7200 X140.8 Y147.643
G1 F1125 X140.8 Y168.843 E64.73869
G0 F7200 X142.4 Y168.843
G1 F1125 X142.4 Y147.643 E66.99506
G0 F7200 X144 Y147.643
G1 F1125 X144 Y168.843 E69.25142
G0 F7200 X145.6 Y168.843
G1 F1125 X145.6 Y147.643 E71.50779
G0 F7200 X147.2 Y147.648
G1 F1125 X147.2 Y168.84 E73.76331
G0 F7200 X148.8 Y168.701
G1 F1125 X148.8 Y147.785 E75.98945
G0 F7200 X150.4 Y148.175
G1 F1125 X150.4 Y168.305 E78.13193
G0 F7200 X152 Y167.944
G1 F1125 X152 Y148.573 E80.19363
G0 F7200 X153.6 Y148.49
G1 F1125 X153.6 Y168.056 E82.27609
G0 F7200 X155.2 Y168.624
G1 F1125 X155.2 Y147.956 E84.47584
G0 F7200 X156.8 Y147.689
G1 F1125 X156.8 Y168.889 E86.7322
G0 F7200 X158.4 Y168.889
G1 F1125 X158.4 Y147.69 E88.98847
G0 F7200 X160 Y147.69
G1 F1125 X160 Y168.889 E91.24473
G0 F7200 X161.6 Y168.889
G1 F1125 X161.6 Y147.689 E93.50109
G0 F7200 X163.2 Y147.689
G1 F1125 X163.2 Y168.889 E95.75746
G0 F7200 X164.8 Y168.889
G1 F1125 X164.8 Y147.689 E98.01383
G0 F7200 X166.4 Y147.689
G1 F1125 X166.4 Y168.889 E100.2702
G0 F7200 X168 Y168.889
G1 F1125 X168 Y147.689 E102.52656
G0 F7200 X169.6 Y147.689
G1 F1125 X169.6 Y168.889 E104.78293
G0 F7200 X171.2 Y168.889
G1 F1125 X171.2 Y147.689 E107.0393
G0 F7200 X172.8 Y147.689
G1 F1125 X172.8 Y168.889 E109.29567
G0 F7200 X174.4 Y168.889
G1 F1125 X174.4 Y147.689 E111.55204
G0 F7200 X176 Y147.689
G1 F1125 X176 Y168.889 E113.8084
G0 F7200 X177.6 Y168.889
G1 F1125 X177.6 Y147.689 E116.06477
G0 F7200 X179.2 Y147.689
G1 F1125 X179.2 Y168.889 E118.32114
G0 F7200 X180.8 Y168.77
G1 F1125 X180.8 Y147.809 E120.55207
G0 F7200 X182.4 Y148.165
G1 F1125 X182.4 Y168.41 E122.70679
G0 F7200 X184 Y167.768
G1 F1125 X184 Y148.809 E124.72465
G0 F7200 X185.6 Y149.786
G1 F1125 X185.6 Y166.791 E126.53453
G0 F7200 X187.2 Y165.33
G1 F1125 X187.2 Y151.243 E128.03384
G0 F7200 X188.8 Y153.634
G1 F1125 X188.8 Y162.937 E129.02398
G1 F1500 E122.02398
G0 F7200 X185.389 Y149.05
G0 X181.845 Y129.386
G0 X182.4 Y128.779
G1 F1500 E129.02398
G1 F1125 X182.4 Y108.173 E131.21713
G0 F7200 X180.8 Y107.926
G1 F1125 X180.8 Y129.028 E133.46307
G0 F7200 X179.2 Y129.076
G1 F1125 X179.2 Y107.877 E135.71933
G0 F7200 X177.6 Y107.877
G1 F1125 X177.6 Y129.076 E137.97559
G0 F7200 X176 Y129.076
G1 F1125 X176 Y107.877 E140.23185
G0 F7200 X174.4 Y107.877
G1 F1125 X174.4 Y129.076 E142.48811
G0 F7200 X172.8 Y129.076
G1 F1125 X172.8 Y107.877 E144.74437
G0 F7200 X171.2 Y107.877
G1 F1125 X171.2 Y129.076 E147.00063
G0 F7200 X169.6 Y129.076
G1 F1125 X169.6 Y107.877 E149.2569
G0 F7200 X168 Y107.877
G1 F1125 X168 Y129.076 E151.51316
G0 F7200 X166.4 Y129.076
G1 F1125 X166.4 Y107.877 E153.76942
G0 F7200 X164.8 Y107.877
G1 F1125 X164.8 Y129.076 E156.02568
G0 F7200 X163.2 Y129.076
G1 F1125 X163.2 Y107.877 E158.28194
G0 F7200 X161.6 Y107.89
G1 F1125 X161.6 Y129.066 E160.53575
G0 F7200 X160 Y129.076
G1 F1125 X160 Y107.877 E162.79201
G0 F7200 X158.4 Y107.877
G1 F1125 X158.4 Y129.076 E165.04827
G0 F7200 X156.8 Y129.025
G1 F1125 X156.8 Y107.935 E167.29293
G0 F7200 X155.2 Y107.996
G1 F1125 X155.2 Y128.522 E169.47757
G0 F7200 X153.6 Y127.957
G1 F1125 X153.6 Y107.596 E171.64464
G0 F7200 X152 Y107.135
G1 F1125 X152 Y127.893 E173.85396
G0 F7200 X150.4 Y128.073
G1 F1125 X150.4 Y106.928 E176.10448
G0 F7200 X148.8 Y106.901
G1 F1125 X148.8 Y128.1 E178.36074
G0 F7200 X147.2 Y128.1
G1 F1125 X147.2 Y106.901 E180.617
G0 F7200 X145.6 Y106.901
G1 F1125 X145.6 Y128.1 E182.87326
G0 F7200 X144 Y128.1
G1 F1125 X144 Y106.901 E185.12952
G0 F7200 X142.4 Y106.901
G1 F1125 X142.4 Y128.1 E187.38578
G0 F7200 X140.8 Y128.1
G1 F1125 X140.8 Y106.901 E189.64204
G0 F7200 X139.2 Y106.901
G1 F1125 X139.2 Y128.1 E191.8983
G0 F7200 X137.6 Y128.1
G1 F1125 X137.6 Y106.901 E194.15457
G0 F7200 X136 Y106.901
G1 F1125 X136 Y128.1 E196.41083
G0 F7200 X134.4 Y128.1
G1 F1125 X134.4 Y106.901 E198.66709
G0 F7200 X132.8 Y106.901
G1 F1125 X132.8 Y128.1 E200.92335
G0 F7200 X131.2 Y128.088
G1 F1125 X131.2 Y106.912 E203.17716
G0 F7200 X129.6 Y106.901
G1 F1125 X129.6 Y128.1 E205.43342
G0 F7200 X128 Y128.1
G1 F1125 X128 Y106.901 E207.68968
G0 F7200 X126.4 Y106.993
G1 F1125 X126.4 Y128.001 E209.92562
G0 F7200 X124.8 Y127.362
G1 F1125 X124.8 Y107.632 E212.02553
G0 F7200 X123.2 Y109.302
G1 F1125 X123.2 Y125.697 E213.77049
G1 F1500 E206.77049
G0 F7200 X123.244 Y126.612
G0 X121.83 Y147.956
G0 X120 Y151.156
G1 F1500 E213.77049
G1 F1125 X120 Y165.317 E215.27768
G1 F1500 E208.27768
G0 F7200 X152.105 Y148.102
G0 X180.358 Y129.541
G0 X184 Y128.263
G1 F1500 E215.27768
G1 F1125 X184 Y108.689 E217.36099
G0 F7200 X185.6 Y109.516
G1 F1125 X185.6 Y127.435 E219.26815
G0 F7200 X187.2 Y126.193
G1 F1125 X187.2 Y110.759 E220.91083
G0 F7200 X188.8 Y112.651
G1 F1125 X188.8 Y124.301 E222.15076
G0 F7200 X190.4 Y120.202
G1 F1125 X190.4 Y116.75 E222.51817
G0 F600 X190.4 Y116.75 Z0.52
G0 F7200 X188.492 Y112.123
;TIME_ELAPSED:122.551272
;LAYER:-5
;TYPE:SUPPORT
G1 F1125 X188.41 Y112.015 E222.52606
G1 X187.953 Y111.456 E222.56809
G1 X187.783 Y111.257 E222.58332
G1 X187.538 Y111.009 E222.60361
G1 X187.447 Y110.92 E222.61102
G1 X186.919 Y110.428 E222.65303
G1 X186.77 Y110.302 E222.66439
G1 X186.449 Y110.047 E222.68825
G1 X186.335 Y109.96 E222.6966
G1 X186.312 Y109.944 E222.69823
G1 X188.496 Y112.128 E222.878
G1 X188.728 Y112.452 E222.9012
G1 X188.83 Y112.605 E222.9119
G1 X189.198 Y113.209 E222.95307
G1 X189.279 Y113.349 E222.96248
G1 X189.448 Y113.658 E222.98298
G1 X189.571 Y113.926 E223.00014
G1 X189.863 Y114.598 E223.04279
G1 X189.936 Y114.776 E223.05399
G1 X189.955 Y114.829 E223.05727
G1 X189.97 Y114.875 E223.06008
G1 X183.568 Y108.473 E223.58706
G1 X183.231 Y108.352 E223.6079
G1 X183.07 Y108.301 E223.61773
G1 X182.63 Y108.176 E223.64435
G1 X182.472 Y108.137 E223.65383
G1 X181.824 Y108.002 E223.69235
G1 X190.427 Y116.605 E224.40051
G1 X190.443 Y116.696 E224.40588
G1 X190.535 Y117.365 E224.44519
